X:15
T:Rosemary Lane
K:D
M:6/8
L:1/8
FEF DFA|dce dcB|AdB AFD|EFD EAG|
FEF DFA|dce dcB|Ade faf|gec d z G|
FFF DFA|dce dcB|Ade AFD|E2 D EAG|
F=F^F DFA|dce dcB|Ade f/g/af|gec d2 f ||
a^ga fef|gfg efg|fed Bcd|ecB ABc|
dcd AFA|Bed cBA|faf gec|edc dfg|
aaa fff|ggg efg|fed Bcd|ecB ABc|
ddd AFA Bed cBA|f/g/af gec|edc d z G |>|
